images/record.svg

<svg width="71" height="70" viewBox="0 0 71 70" fill="none" xmlns="http://www.w3.org/2000/svg">
<rect x="0.666992" width="70" height="70" rx="10" fill="#E6FFF3"/>
<g clip-path="url(#clip0_1_1930)">
<path d="M35.667 20C27.3827 20 20.667 26.7157 20.667 35C20.667 43.2842 27.3827 49.9999 35.667 49.9999C43.9512 49.9999 50.6669 43.2842 50.6669 35C50.6581 26.7194 43.9476 20.0089 35.667 20ZM41.984 35.4779C41.8802 35.6862 41.7114 35.8551 41.503 35.9589V35.9643L32.9316 40.25C32.4023 40.5145 31.7588 40.2998 31.4942 39.7705C31.419 39.62 31.3803 39.4539 31.3812 39.2857V30.7143C31.381 30.1225 31.8604 29.6427 32.4522 29.6423C32.6186 29.6423 32.7828 29.681 32.9316 29.7554L41.503 34.0411C42.0326 34.305 42.248 34.9483 41.984 35.4779Z" fill="#00C968"/>
</g>
<defs>
<clipPath id="clip0_1_1930">
<rect width="30" height="30" fill="white" transform="translate(20.667 20)"/>
</clipPath>
</defs>
</svg>

<svg xmlns="http://www.w3.org/2000/svg" width="71" height="70" fill="none"><rect width="70" height="70" x=".667" fill="#E6FFF3" rx="10"/><g clip-path="url(#a)"><path fill="#00C968" d="M35.667 20c-8.284 0-15 6.716-15 15 0 8.284 6.716 15 15 15 8.284 0 15-6.716 15-15-.009-8.28-6.72-14.991-15-15Zm6.317 15.478a1.07 1.07 0 0 1-.481.48v.006l-8.571 4.286a1.072 1.072 0 0 1-1.55-.964v-8.572a1.072 1.072 0 0 1 1.55-.959l8.571 4.286c.53.264.745.907.481 1.437Z"/></g><defs><clipPath id="a"><path fill="#fff" d="M20.667 20h30v30h-30z"/></clipPath></defs></svg>
